X: 1567
T: I'm Waiting For You.
T: taim ag fuirea.c leatsa.
R:Hornpipe
B:O'Neill's 1567
M:2/4
K:G
D2|G3B AGED|GBdg e3f|{a}gfge dBAc|BGAF GFED|
G3B AGED|GBdg e3f|{a}gfge dBge|dBAB G2:|
z2|g2dg edgd|eaab agef|g2dg edgd|egfa g2(ga)|
(3bc'b bg (3aba af|(3gag ge d(ef)|{a}gfge dBge|dBAB G2:|


